tenants/donaldduck/icons/round-star.svg

<svg fill="none" height="24" viewBox="0 0 24 24" width="24" xmlns="http://www.w3.org/2000/svg"><path d="m12.0001 19.0573 5.0925 3.0803c.9322.5647 2.0737-.27 1.8285-1.3253l-1.35-5.7915 4.503-3.9022c.8227-.7125.381-2.06179-.699-2.14729l-5.9273-.50325-2.319-5.47275c-.417-.99375-1.8405-.99375-2.2575 0l-2.31899 5.46-5.92725.50325c-1.08.08625-1.52175 1.43624-.699 2.14804l4.503 3.9015-1.35 5.7922c-.24525 1.0553.89625 1.89 1.8285 1.3253z" fill="#000"/></svg>

<svg width="24" height="24" viewBox="0 0 24 24" fill="none" xmlns="http://www.w3.org/2000/svg">
<path d="M12.0001 19.0573L17.0926 22.1376C18.0248 22.7023 19.1663 21.8676 18.9211 20.8123L17.5711 15.0208L22.0741 11.1186C22.8968 10.4061 22.4551 9.05681 21.3751 8.97131L15.4478 8.46806L13.1288 2.99531C12.7118 2.00156 11.2883 2.00156 10.8713 2.99531L8.55231 8.45531L2.62506 8.95856C1.54506 9.04481 1.10331 10.3948 1.92606 11.1066L6.42906 15.0081L5.07906 20.8003C4.83381 21.8556 5.97531 22.6903 6.90756 22.1256L12.0001 19.0573Z" fill="black"/>
</svg>
